!!!COM: Palestrina, Giovanni Perluigi da
!!!OPR: Missa Salvum me fac
!!!OMD: Kyrie
!!!OTL: First Section
**kern	**kern	**kern	**kern	**kern
*Ibass	*Itenor	*Icalto	*Icant	*Icant
!Bassus	!Tenor	!Altus	!Cantus 2	!Cantus 1
*clefF4	*clefGv2	*clefG2	*clefG2	*clefG2
*k[b-]	*k[b-]	*k[b-]	*k[b-]	*k[b-]
*G:dor	*G:dor	*G:dor	*G:dor	*G:dor
*M4/2	*M4/2	*M4/2	*M4/2	*M4/2
=1	=1	=1	=1	=1
0r	0r	0r	0r	0g
=2	=2	=2	=2	=2
0r	0r	0r	0r	1b
.	.	.	.	1b
=3	=3	=3	=3	=3
0r	0r	0d	0r	1a
.	.	.	.	[1dd
=4	=4	=4	=4	=4
0r	0r	1f	0r	2dd]
.	.	.	.	2cc
.	.	1e	.	1cc
=5	=5	=5	=5	=5
1r	0r	1d	0r	2.ff
.	.	.	.	4ee-
[1G	.	[1g	.	4dd
.	.	.	.	4cc
.	.	.	.	[2dd
=6	=6	=6	=6	=6
1G]	0r	1g_	0r	4dd]
.	.	.	.	4b-
.	.	.	.	2.ee-
1B-	.	1g_	.	.
.	.	.	.	4dd
.	.	.	.	2dd
=7	=7	=7	=7	=7
1c	0r	1g]	0r	2cc
.	.	.	.	2b-
1d	.	1f	.	1a
=8	=8	=8	=8	=8
1.G	0r	2.b-	0g	2r
.	.	.	.	2g
.	.	4a	.	.
.	.	4g	.	2b-
.	.	4f	.	.
2C	.	2e-	.	2cc
=9	=9	=9	=9	=9
0G	0r	4d	1b-	0dd
.	.	4c	.	.
.	.	4B-	.	.
.	.	4A	.	.
.	.	2G	1b-	.
.	.	[2g	.	.
=10	=10	=10	=10	=10
2D	0d	2g]	1a	0dd
2.d	.	4f	.	.
.	.	4e	.	.
.	.	2f	[1dd	.
4c	.	.	.	.
2B-	.	2g	.	.
=11	=11	=11	=11	=11
0A	1f	[0a	2dd]	0r
.	.	.	2cc	.
.	1e	.	1cc	.
=12	=12	=12	=12	=12
1r	1d	1a]	2.ff	2r
.	.	.	.	2a
.	.	.	4ee-	.
1G	[1g	1r	4dd	2.b-
.	.	.	4cc	.
.	.	.	[2dd	.
.	.	.	.	4cc
=13	=13	=13	=13	=13
2B-	1g]	0r	4dd]	2dd
.	.	.	4b-	.
2c	.	.	2ee-	4cc
.	.	.	.	4b-
1d	1f#	.	[1dd	4a
.	.	.	.	4g
.	.	.	.	2a
=14	=14	=14	=14	=14
1G	2.g	0g	2dd]	2.b-
.	.	.	2g	.
.	4f	.	.	4a
1r	4e-	.	2b-	4g
.	4d	.	.	4f
.	2c	.	2cc	2e-
=15	=15	=15	=15	=15
0r	2B-	1b-	1dd	2d
.	2G	.	.	1g
.	[1d	1a	1dd	.
.	.	.	.	2f
=16	=16	=16	=16	=16
0G	1d]	2.g	2r	2.b-
.	.	.	2g	.
.	.	4f	.	4a
.	1r	1e-	2b-	1g
.	.	.	2cc	.
=17	=17	=17	=17	=17
1B-	1r	1d	2dd	2f
.	.	.	2.ff	2d
1B-	1d	1r	.	2f
.	.	.	4ee-	.
.	.	.	2dd	2g
=18	=18	=18	=18	=18
0A	1f	2r	2cc	0a
.	.	1a	1dd	.
.	1e	.	.	.
.	.	2e	2cc#	.
=19	=19	=19	=19	=19
2.d	0d	2.f	2dd	1a
.	.	.	2a	.
4c	.	4e	.	.
4B-	.	4d	2.b-	2r
4A	.	4c	.	.
[2G	.	[2B-	.	2g
.	.	.	4cc	.
=20	=20	=20	=20	=20
2G]	1g	2B-]	2dd	2b-
4F	.	4A	2ee-	2cc
4E-	.	4G	.	.
2.D	2f	1A	1ff	2dd
.	2d	.	.	[2ff
4C	.	.	.	.
=21	=21	=21	=21	=21
2.BB-	2.f	4B-	1ff	4ff]
.	.	4c	.	4ee-
.	.	4d	.	4dd
4C	4e-	4e-	.	4cc
4D	2d	1f	2r	2b-
4E-	.	.	.	.
2F	2c	.	2a	[2a
=22	=22	=22	=22	=22
2G	2B-	2d	2b-	4a]
.	.	.	.	4g
2C	2c	2e-	2g	1g
1D	1A	1d	2.dd	.
.	.	.	.	2f#
.	.	.	4cc	.
=23	=23	=23	=23	=23
1G	2G	2r	4b-	1g
.	.	.	4a	.
.	2.d	2d	2b-	.
1r	.	2f	2a	2r
.	4c	.	.	.
.	2B-	2g	[2g	2dd
=24	=24	=24	=24	=24
1r	1A	2a	2g]	2.cc
.	.	1cc	2f#	.
.	.	.	.	4dd
2r	1G	.	1g	2ee-
2G	.	[2b-	.	[2dd
=25	=25	=25	=25	=25
2B-	0r	4b-]	1r	2dd]
.	.	4a	.	.
2c	.	1g	.	4cc
.	.	.	.	4b-
2.d	.	.	2r	1a
.	.	2f#	2a	.
4c	.	.	.	.
=26	=26	=26	=26	=26
4B-	1G	2g	2.b-	1g
4A	.	.	.	.
1G	.	1b-	.	.
.	.	.	4cc	.
.	2B-	.	2dd	2r
4F	2c	4a	[2ff	2a
4E-	.	4g	.	.
=27	=27	=27	=27	=27
2D	2d	2f	2ff]	2b-
2C	2e-	2g	2ee-	2cc
1BB-	2f	2b-	2.dd	2dd
.	2d	[2B-	.	[2ff
.	.	.	4cc	.
=28	=28	=28	=28	=28
2.BB-	2.f	4B-]	2b-	4ff]
.	.	4c	.	4ee-
.	.	4d	2.f	4dd
4C	4e-	4e-	.	4cc
4D	2d	1f	.	2b-
4E-	.	.	4g	.
2F	2c	.	2a	[2a
=29	=29	=29	=29	=29
2G	2B-	2d	2b-	4a]
.	.	.	.	4g
2C	2c	2e-	2g	1g
1D	1A	1d	1dd	.
.	.	.	.	2f#
=30	=30	=30	=30	=30
[0G	[0G	[0d	[0b	[0g
=31	=31	=31	=31	=31
0G]	0G]	0d]	0b]	0g]
*-	*-	*-	*-	*-
!!!CDT: 1525/^1526/-1594/2/2
!!!OCY: Italia
!!!AGN: Mass (Parody)
!!!AST: renaissance, vocal
!!!ASW: Motet 1538 (Jacquet)
!!!PWK: Masses, Book 2
!!!RNB: Cadence finals: D
!!!YOR: Le Opere Complete, v. 4, p. 126
!!!YOO: Rome, Italy: Fratelli Scalera
!!!END: 1992//
!!!EED: John Miller
!!!YEC: Copyright 2000, John Miller
!!!YEN: United States of America
!!!YEM: Rights to all derivative electronic formats reserved.
!!!YEM: Refer to licensing agreement for further details.
!!!YEM: This file must be accompanied by the licensing agreement.
!!!YEM: A copy of the licensing agreement may be found at http://www.music-cog.ohio-state.edu/HumdrumDatabases/Palestrina/license.txt
!!!EMD: converted to Humdrum by Bret Aarden
